X:1
T:Title
%%score { ( 1 2 ) | ( 3 4 ) }
L:1/8
Q:1/4=100
M:4/4
K:D
V:1 treble nm="Grand Piano"
V:2 treble 
V:3 bass 
V:4 bass 
V:1
 [FA]4 z4 | [FA]4 z4 | [Fd]2 [Gd]2 z4 | [DF]4 z4 | .D2 [GB]2 z4 | [DFA][A,FA][B,GB][CGB] [DFA]4 | %6
w: W.~Gardner~Hunter||||||
 [Dd]2 d2 z4 |[M:9/8] .[CE]6 z3 |] %8
w: ||
V:2
 z A,B,[CGB] [DFA]2 [A,DF]2 | DA,B,[CGB] [DFA]2 [A,DF]2 | z [D,D] z [D,^A,] [Fd][FA][EG][DF] | %3
 z2 ^G,2 [A,CE]2 FG | [FA]-[A,FA]B,C [DFA]2 [A,DF][A,EG] | x8 | z G, z B, dAGF | %7
[M:9/8] z2 G,- G, D2- D z z |] %8
V:3
 [D,D]D,D,D, D,2 D,2 | D,D,D,D, D,2 D,2 | .[D,A,]2 .[D,B,]2 [D,A,][D,A,][D,A,][D,A,] | %3
 [D,A,]2 B,,2 A,,2 DE | D,D,D,D, D,2 D,D, | D,D,D,D, D,4 | z2 D2[K:treble] z4[K:bass] | %7
[M:9/8] .A,3 z3 z3 |] %8
V:4
 x8 | x8 | x8 | x8 | x8 | x8 | [D,F,]E,[F,A,]G,[K:treble] [A,F][A,F][K:bass][A,E][A,D] | %7
[M:9/8] A,,3- A,, [D,F,]2- [D,F,] z z |] %8

